dist/images/slides/compitences-1.svg

<svg width="100" height="100" viewBox="0 0 100 100" fill="none" xmlns="http://www.w3.org/2000/svg">
<path d="M49.1434 99.9999C22.002 99.9999 0 77.9963 0 50.855C0 37.5107 5.31883 25.4076 13.9504 16.5527C14.063 16.4369 14.1758 16.3228 14.2897 16.2078L14.2922 16.211C5.66095 25.066 0.341727 37.1682 0.341727 50.5125C0.341727 77.6546 22.3438 99.6581 49.4851 99.6581C62.8292 99.6581 74.9321 94.3386 83.787 85.7066L83.7894 85.7087C83.6752 85.8229 83.5603 85.9354 83.4454 86.048C74.5897 94.6813 62.4876 99.9999 49.1434 99.9999Z" fill="#969A9D"/>
<path d="M49.4871 99.6581C22.3459 99.6581 0.34375 77.6546 0.34375 50.5125C0.34375 37.1682 5.66298 25.066 14.2942 16.211C14.4071 16.0953 14.52 15.9803 14.6334 15.8662L14.6363 15.8686C6.00502 24.7243 0.685798 36.8266 0.685798 50.1709C0.685798 77.3129 22.6879 99.3167 49.8295 99.3167C63.1737 99.3167 75.2758 93.9971 84.1307 85.3639L84.1339 85.3673C84.0189 85.4805 83.9048 85.594 83.789 85.7066C74.9342 94.3386 62.8313 99.6581 49.4871 99.6581Z" fill="#96999C"/>
<path d="M49.8312 99.3166C22.6896 99.3166 0.6875 77.3127 0.6875 50.1708C0.6875 36.8264 6.00672 24.7242 14.638 15.8684C14.7509 15.7535 14.8637 15.6385 14.9773 15.5244L14.98 15.5268C6.34877 24.3818 1.02922 36.4848 1.02922 49.8291C1.02922 76.9704 23.0316 98.9739 50.1729 98.9739C63.517 98.9739 75.6191 93.6553 84.4748 85.0224L84.4772 85.0245C84.3631 85.139 84.2481 85.2512 84.1324 85.3638C75.2775 93.997 63.1754 99.3166 49.8312 99.3166Z" fill="#96989A"/>
<path d="M50.171 98.9739C23.0298 98.9739 1.02734 76.9703 1.02734 49.8291C1.02734 36.4848 6.34689 24.3817 14.9782 15.5267C15.0907 15.411 15.2036 15.2969 15.3174 15.1819L15.3199 15.1851C6.68862 24.0401 1.36939 36.1423 1.36939 49.4866C1.36939 76.6285 23.3715 98.6325 50.5126 98.6325C63.8568 98.6325 75.9597 93.3129 84.8146 84.6806L84.817 84.6831C84.7028 84.7963 84.5879 84.9098 84.4729 85.0223C75.6173 93.6552 63.5152 98.9739 50.171 98.9739Z" fill="#95979A"/>
<path d="M50.5104 98.6328C23.3693 98.6328 1.36719 76.6289 1.36719 49.487C1.36719 36.1427 6.68641 24.0404 15.3177 15.1854C15.4302 15.0697 15.5434 14.9548 15.6573 14.8406L15.6597 14.843C13.5962 16.9607 11.7207 19.2645 10.063 21.7255C10.0614 21.7279 10.0596 21.7311 10.0577 21.7335C10.0465 21.7502 10.0353 21.767 10.0241 21.7838C10.0207 21.7894 10.0178 21.7925 10.0144 21.7981C10.0044 21.8133 9.99471 21.8277 9.98449 21.8428C9.98106 21.8476 9.97539 21.8564 9.97196 21.8612C9.96262 21.8756 9.95392 21.8883 9.94458 21.9027C9.93923 21.9107 9.93485 21.9171 9.9299 21.9251C9.92207 21.9362 9.91337 21.949 9.90587 21.961C9.899 21.9714 9.89309 21.9801 9.88623 21.9897C9.88 21.9993 9.87314 22.0097 9.86692 22.0192C9.85909 22.0312 9.85223 22.0416 9.84448 22.0528C9.8385 22.0623 9.83323 22.0703 9.82732 22.0791C9.81886 22.0919 9.81016 22.1047 9.8017 22.1174C9.79771 22.1238 9.79299 22.131 9.78892 22.1374C9.77863 22.1526 9.76961 22.1661 9.75963 22.1821C9.7562 22.1869 9.75373 22.1909 9.75029 22.1957C9.73936 22.2124 9.72754 22.2308 9.7166 22.2476C9.71477 22.2499 9.71413 22.2507 9.71253 22.2539C9.69976 22.2731 9.68763 22.2915 9.67486 22.3114C9.67454 22.3122 9.67422 22.3122 9.67358 22.313C4.63598 30.0281 1.70899 39.2439 1.70899 49.1453C1.70899 65.1039 9.31469 79.2846 21.0993 88.2628C29.3579 94.5546 39.6696 98.2901 50.8529 98.2901C56.2594 98.2901 61.4631 97.417 66.3283 95.8046L66.3291 95.8037C66.3515 95.7966 66.3746 95.7887 66.397 95.7812C66.3986 95.7812 66.4002 95.7806 66.4018 95.7797C66.4225 95.7725 66.4417 95.7663 66.4624 95.7598C66.4672 95.7582 66.4704 95.7566 66.4752 95.755C66.4936 95.7495 66.5119 95.7432 66.5303 95.7367C66.5367 95.7351 66.5415 95.7335 66.5471 95.731C66.563 95.7254 66.5782 95.7207 66.595 95.7151C66.6037 95.712 66.6117 95.7095 66.6205 95.7064C66.6341 95.7014 66.6476 95.6968 66.6612 95.6927C66.6716 95.6889 66.682 95.6855 66.6923 95.6814C66.7035 95.6783 66.7155 95.6743 66.7267 95.6705C66.7394 95.6656 66.7522 95.6615 66.7658 95.6569C66.7746 95.6537 66.7825 95.6512 66.7913 95.6481C66.8065 95.6434 66.8225 95.6378 66.8368 95.6322C66.844 95.6303 66.8512 95.6272 66.8576 95.6257C66.8759 95.6194 66.8927 95.6129 66.911 95.6072C66.9134 95.6057 66.9166 95.6051 66.919 95.6041C66.9398 95.597 66.9613 95.5898 66.9821 95.5826C66.9837 95.5817 66.9853 95.581 66.9869 95.581C68.1571 95.1738 69.3098 94.7235 70.4377 94.2328C70.4337 94.2353 70.4289 94.2368 70.4249 94.239C75.9327 91.8452 80.9162 88.472 85.1556 84.3391L85.1572 84.3417C85.0431 84.4548 84.9281 84.5678 84.8124 84.6809C75.9575 93.3132 63.8546 98.6328 50.5104 98.6328Z" fill="#939699"/>
<path d="M50.8512 98.2896C56.2585 98.2896 61.4606 97.4164 66.3266 95.804C61.4614 97.4164 56.2577 98.2896 50.8512 98.2896ZM66.4735 95.7545C66.4911 95.7489 66.511 95.7427 66.5286 95.7361C66.5102 95.7427 66.4919 95.7489 66.4735 95.7545ZM66.5454 95.7304C66.5605 95.7258 66.5781 95.7193 66.5933 95.7146C66.5765 95.7201 66.5613 95.7249 66.5454 95.7304ZM66.6906 95.6809C66.7026 95.6771 66.713 95.6737 66.725 95.6699C66.7138 95.6737 66.7018 95.6778 66.6906 95.6809ZM66.8351 95.6316C66.8415 95.6297 66.8503 95.6266 66.8559 95.6251C66.8495 95.6266 66.8423 95.6297 66.8351 95.6316ZM66.9804 95.5821C66.9836 95.5805 66.982 95.5811 66.9852 95.5805C66.9836 95.5805 66.982 95.5811 66.9804 95.5821ZM9.67188 22.3124C9.67251 22.3116 9.67283 22.3116 9.67315 22.3108L9.67188 22.3124ZM9.74859 22.1951C9.75202 22.1903 9.75449 22.1863 9.75792 22.1815C9.75545 22.1855 9.75106 22.1919 9.74859 22.1951ZM9.82561 22.0785C9.83152 22.0698 9.83679 22.0618 9.84278 22.0522C9.83679 22.0618 9.83184 22.0698 9.82561 22.0785ZM9.86521 22.0187C9.87143 22.0091 9.87829 21.9987 9.88452 21.9891C9.87861 21.9987 9.87112 22.0099 9.86521 22.0187ZM9.98279 21.8423C9.993 21.8271 10.0027 21.8127 10.0127 21.7976C10.0024 21.8127 9.993 21.8271 9.98279 21.8423ZM10.0613 21.7249C11.719 19.2639 13.5945 16.9602 15.658 14.8424C15.7706 14.7275 15.8834 14.6125 15.9973 14.4984C13.799 16.7095 11.8093 19.1298 10.0613 21.7249Z" fill="#939599"/>
<mask id="mask0_801_4673" style="mask-type:luminance" maskUnits="userSpaceOnUse" x="1" y="0" width="99" height="99">
<path d="M50.8548 98.2905C39.6715 98.2905 29.3599 94.555 21.1013 88.2632C9.31664 79.285 1.71094 65.1043 1.71094 49.1457C1.71094 39.2442 4.63792 30.0285 9.67553 22.3134L9.67681 22.3118C9.68958 22.2918 9.70171 22.2735 9.71448 22.2543C9.71608 22.2511 9.71671 22.2503 9.71855 22.2479C9.72949 22.2312 9.74131 22.2128 9.75224 22.1961C9.75471 22.1929 9.7591 22.1865 9.76158 22.1825C9.77155 22.1665 9.78057 22.153 9.79087 22.1378C9.79494 22.1314 9.79965 22.1242 9.80365 22.1178C9.81211 22.1051 9.82081 22.0923 9.82927 22.0795C9.83549 22.0707 9.84045 22.0628 9.84643 22.0532C9.85418 22.042 9.86104 22.0316 9.86886 22.0196C9.87477 22.0109 9.88227 21.9997 9.88818 21.9901C9.89504 21.9805 9.90095 21.9718 9.90782 21.9614C9.91532 21.9494 9.92402 21.9366 9.93184 21.9255C9.93679 21.9175 9.94118 21.9111 9.94653 21.9031C9.95587 21.8887 9.96457 21.876 9.97391 21.8616C9.97734 21.8568 9.98301 21.848 9.98644 21.8432C9.99666 21.8281 10.0061 21.8137 10.0164 21.7985C10.0197 21.7929 10.0226 21.7897 10.026 21.7842C10.0372 21.7674 10.0485 21.7506 10.0596 21.7339C10.0616 21.7315 10.0634 21.7283 10.065 21.7259C11.813 19.1308 13.8027 16.7105 16.0013 14.4994C17.3324 13.1599 18.739 11.8986 20.2164 10.7188C23.6684 9.08562 26.8985 7.06207 29.8524 4.70484C35.84 2.10654 42.4478 0.665703 49.3917 0.665703C76.5334 0.665703 98.5353 22.6694 98.5353 49.8115C98.5353 69.422 87.051 86.3479 70.4396 94.2332C69.3117 94.724 68.1591 95.1742 66.9889 95.5814C66.9857 95.5821 66.9873 95.5814 66.9841 95.583C66.9633 95.5902 66.9417 95.5974 66.921 95.6045C66.9186 95.6055 66.9154 95.6061 66.913 95.6076C66.8947 95.6133 66.8779 95.6198 66.8595 95.6261C66.854 95.6276 66.8452 95.6307 66.8388 95.6326C66.8244 95.6382 66.8084 95.6439 66.7933 95.6485C66.7845 95.6516 66.7765 95.6541 66.7677 95.6573C66.7542 95.6619 66.7414 95.666 66.7286 95.6709C66.7167 95.6747 66.7063 95.6781 66.6943 95.6819C66.6839 95.6859 66.6735 95.6894 66.6632 95.6931C66.6496 95.6972 66.636 95.7018 66.6225 95.7068C66.6137 95.7099 66.6057 95.7124 66.5969 95.7155C66.5817 95.7202 66.5642 95.7268 66.549 95.7314C66.5434 95.7339 66.5386 95.7355 66.5323 95.7371C66.5147 95.7436 66.4947 95.7499 66.4772 95.7555C66.4724 95.757 66.4692 95.7586 66.4644 95.7602C66.4436 95.7667 66.4245 95.7729 66.4037 95.7801C66.4021 95.781 66.4006 95.7816 66.399 95.7816C66.3766 95.7891 66.3535 95.797 66.3311 95.8041L66.3303 95.805C61.4642 97.4174 56.2621 98.2905 50.8548 98.2905ZM99.2034 57.9999C99.2042 57.9991 99.2042 57.9959 99.205 57.9943C99.2042 57.9959 99.2042 57.9983 99.2034 57.9999ZM99.2297 57.8538C99.2313 57.8474 99.2321 57.8402 99.2337 57.8339C99.2321 57.841 99.2313 57.8458 99.2297 57.8538ZM99.2425 57.7844C99.2441 57.7772 99.2449 57.77 99.2465 57.7628C99.2449 57.7692 99.2433 57.778 99.2425 57.7844ZM99.2688 57.6327C99.2712 57.6223 99.2728 57.6119 99.2744 57.6016C99.2728 57.6127 99.2712 57.6215 99.2688 57.6327ZM99.2808 57.5656C99.2824 57.5537 99.2848 57.5441 99.2864 57.5329C99.2848 57.5433 99.2824 57.5545 99.2808 57.5656ZM99.2936 57.4898C99.2968 57.4723 99.3 57.4523 99.3032 57.4347C99.3 57.4531 99.2968 57.4715 99.2936 57.4898ZM99.3175 57.3509C99.7654 54.6832 99.9992 51.942 99.9992 49.1465C99.9992 35.8772 94.7388 23.8341 86.1913 14.9919C94.7388 23.8341 99.9992 35.8764 99.9992 49.1457C99.9992 51.942 99.7661 54.6824 99.3175 57.3509ZM29.8548 4.70245C29.8572 4.70085 29.8572 4.70085 29.8596 4.69925C32.7715 3.32147 35.8416 2.2207 39.0345 1.43203C35.84 2.2215 32.7691 3.32227 29.8548 4.70245ZM39.076 1.42164C39.0832 1.42004 39.092 1.41766 39.1 1.41606C39.092 1.41766 39.084 1.42004 39.076 1.42164Z" fill="white"/>
</mask>
<g mask="url(#mask0_801_4673)">
<path d="M50.8548 98.2905C39.6715 98.2905 29.3599 94.555 21.1013 88.2632C9.31664 79.285 1.71094 65.1043 1.71094 49.1457C1.71094 39.2443 4.63792 30.0285 9.67553 22.3134L9.67681 22.3118C9.68958 22.2918 9.70171 22.2735 9.71448 22.2543C9.71608 22.2511 9.71671 22.2503 9.71855 22.2479C9.72949 22.2312 9.74131 22.2128 9.75224 22.1961C9.75472 22.1929 9.7591 22.1865 9.76158 22.1825C9.77155 22.1665 9.78057 22.153 9.79087 22.1378C9.79494 22.1314 9.79965 22.1242 9.80365 22.1178C9.81211 22.1051 9.82081 22.0923 9.82927 22.0795C9.83549 22.0707 9.84045 22.0627 9.84643 22.0532C9.85418 22.042 9.86104 22.0316 9.86886 22.0196C9.87477 22.0109 9.88227 21.9997 9.88818 21.9901C9.89504 21.9805 9.90095 21.9718 9.90782 21.9614C9.91532 21.9494 9.92402 21.9366 9.93184 21.9255C9.93679 21.9175 9.94118 21.9111 9.94653 21.9031C9.95587 21.8887 9.96457 21.876 9.97391 21.8616C9.97734 21.8568 9.98301 21.848 9.98644 21.8432C9.99666 21.8281 10.0061 21.8137 10.0164 21.7985C10.0197 21.7929 10.0226 21.7897 10.026 21.7842C10.0372 21.7674 10.0485 21.7506 10.0596 21.7339C10.0616 21.7315 10.0634 21.7283 10.065 21.7259C11.813 19.1308 13.8027 16.7105 16.0013 14.4994C17.3324 13.1599 18.739 11.8986 20.2164 10.7188C23.6684 9.08562 26.8985 7.06207 29.8524 4.70485C35.84 2.10655 42.4478 0.665703 49.3917 0.665703C76.5334 0.665703 98.5353 22.6694 98.5353 49.8115C98.5353 69.422 87.051 86.3479 70.4396 94.2332C69.3117 94.724 68.1591 95.1742 66.9889 95.5814C66.9857 95.5821 66.9873 95.5814 66.9841 95.583C66.9633 95.5902 66.9417 95.5974 66.921 95.6045C66.9186 95.6055 66.9154 95.6061 66.913 95.6076C66.8947 95.6133 66.8779 95.6198 66.8595 95.6261C66.854 95.6276 66.8452 95.6307 66.8388 95.6326C66.8244 95.6382 66.8084 95.6439 66.7933 95.6485C66.7845 95.6516 66.7765 95.6541 66.7677 95.6573C66.7542 95.6619 66.7414 95.666 66.7286 95.6709C66.7167 95.6747 66.7063 95.6781 66.6943 95.6819C66.6839 95.6859 66.6735 95.6894 66.6632 95.6931C66.6496 95.6972 66.636 95.7018 66.6225 95.7068C66.6137 95.7099 66.6057 95.7124 66.5969 95.7155C66.5817 95.7202 66.5642 95.7268 66.549 95.7314C66.5434 95.7339 66.5386 95.7355 66.5323 95.7371C66.5147 95.7436 66.4947 95.7499 66.4772 95.7555C66.4724 95.757 66.4692 95.7586 66.4644 95.7602C66.4437 95.7667 66.4245 95.7729 66.4037 95.7801C66.4021 95.781 66.4006 95.7816 66.399 95.7816C66.3766 95.7891 66.3535 95.797 66.3311 95.8041L66.3303 95.805C61.4642 97.4174 56.2621 98.2905 50.8548 98.2905ZM99.2034 57.9999C99.2042 57.9991 99.2042 57.9959 99.205 57.9943C99.2042 57.9959 99.2042 57.9983 99.2034 57.9999ZM99.2297 57.8538C99.2313 57.8474 99.2321 57.8402 99.2337 57.8339C99.2321 57.841 99.2313 57.8458 99.2297 57.8538ZM99.2425 57.7844C99.2441 57.7772 99.2449 57.77 99.2465 57.7628C99.2449 57.7692 99.2433 57.778 99.2425 57.7844ZM99.2688 57.6327C99.2712 57.6223 99.2728 57.6119 99.2744 57.6016C99.2728 57.6127 99.2712 57.6215 99.2688 57.6327ZM99.2808 57.5656C99.2824 57.5537 99.2848 57.5441 99.2864 57.5329C99.2848 57.5433 99.2824 57.5545 99.2808 57.5656ZM99.2936 57.4898C99.2968 57.4723 99.3 57.4523 99.3032 57.4347C99.3 57.4531 99.2968 57.4715 99.2936 57.4898ZM99.3175 57.3509C99.7654 54.6832 99.9992 51.942 99.9992 49.1465C99.9992 35.8772 94.7388 23.8341 86.1913 14.9919C94.7388 23.8341 99.9992 35.8764 99.9992 49.1457C99.9992 51.942 99.7662 54.6824 99.3175 57.3509ZM29.8548 4.70245C29.8572 4.70085 29.8572 4.70085 29.8596 4.69926C32.7715 3.32148 35.8416 2.2207 39.0345 1.43202C35.84 2.22149 32.7691 3.32227 29.8548 4.70245ZM39.076 1.42164C39.0832 1.42004 39.092 1.41766 39.1 1.41606C39.092 1.41766 39.084 1.42004 39.076 1.42164Z" fill="url(#paint0_linear_801_4673)"/>
</g>
<path d="M100.001 49.1458C100.001 69.3319 87.8314 86.6756 70.4282 94.2386C87.0459 86.3559 98.5366 69.426 98.5366 49.8107C98.5366 22.6686 76.5347 0.664932 49.393 0.664932C42.4395 0.664932 35.8237 2.10976 29.8281 4.71524C36.2037 1.69068 43.3319 -1.52588e-05 50.8569 -1.52588e-05C77.9979 -1.52588e-05 100.001 22.0037 100.001 49.1458Z" fill="white"/>
<path d="M79.298 56.0319C78.5581 55.0844 77.6042 54.5863 77.1691 54.9247C76.7333 55.264 76.976 56.3073 77.7159 57.262C78.4543 58.2159 79.4082 58.7068 79.8448 58.3676C80.2799 58.0291 80.038 56.9858 79.298 56.0319ZM72.2887 52.8373C70.5877 49.9349 67.7811 46.2358 65.7416 45.2268C64.9122 44.8189 63.4809 44.7774 63.4809 44.7774L63.5017 53.3075C63.5017 53.3075 69.7232 53.2732 72.0053 53.3075C72.2608 53.3147 72.3853 53.0034 72.2887 52.8373ZM52.593 45.3027H49.0264V41.978H44.3815V45.3027H40.9259V50.0586H44.3815V53.3833H49.0264V50.0586H52.593V45.3027ZM80.4802 61.2301C80.1617 61.5662 80.5273 63.3582 79.5543 63.3518C78.7305 63.3518 77.3974 63.3518 77.3974 63.3518C77.4589 63.0477 77.4876 62.7364 77.4876 62.4115V62.4043C77.4876 61.5406 77.2649 60.732 76.8794 60.0271L76.8163 59.9162L76.7062 59.7366C76.6503 59.6464 76.5952 59.5705 76.5337 59.4875C76.0835 58.8657 75.4896 58.354 74.8048 57.9948C74.1207 57.6348 73.3328 57.4344 72.5098 57.428C69.7663 57.428 67.5328 59.6607 67.5328 62.4043C67.5328 62.7292 67.5663 63.0477 67.6302 63.3518H41.1965C41.258 63.027 41.3003 62.6877 41.3003 62.3421C41.3003 60.9811 40.7471 59.7438 39.8547 58.8513C38.9638 57.9597 37.7329 57.4001 36.3711 57.4001C33.6476 57.4001 31.4356 59.6192 31.4356 62.3357C31.4356 62.7164 31.4771 63.0685 31.5466 63.3518H29.1694C27.7795 63.3518 26.6523 62.2247 26.6523 60.8342V37.8175C26.6523 36.4277 27.7795 35.3006 29.1694 35.3006H62.1279C63.5193 35.3006 64.6472 36.4277 64.6456 37.8191C64.644 39.3006 64.6464 40.9386 64.6599 41.23C64.6943 41.9532 64.7653 42.5918 65.3265 42.8345C66.3634 43.2839 67.0427 43.6527 68.9521 45.3202C71.0778 47.1761 73.2218 50.8401 76.3741 52.6026C80.1753 54.7244 80.2998 55.8515 80.687 56.4877C81.3647 57.6212 81.7015 59.9425 80.4802 61.2301ZM36.3879 58.714C34.3253 58.714 32.6569 60.3832 32.6529 62.4458C32.6529 64.5077 34.3221 66.1792 36.3823 66.1816C38.4458 66.1816 40.1165 64.5125 40.1197 62.4506C40.1197 60.388 38.449 58.7164 36.3879 58.714ZM76.2296 62.4123C76.2296 64.4718 74.5549 66.1433 72.4955 66.1433C70.4336 66.1409 68.7629 64.4694 68.7637 62.4075C68.7637 60.3448 70.4384 58.6757 72.4979 58.6757C74.5605 58.6781 76.2312 60.3504 76.2296 62.4123Z" fill="#202020"/>
<defs>
<linearGradient id="paint0_linear_801_4673" x1="-6.00243" y1="121.333" x2="85.6065" y2="14.3965" gradientUnits="userSpaceOnUse">
<stop stop-color="white"/>
<stop offset="1" stop-color="#EFEFEF"/>
</linearGradient>
</defs>
</svg>

<svg width="100" height="100" fill="none" xmlns="http://www.w3.org/2000/svg"><path d="M49.143 100C22.002 100 0 77.996 0 50.855c0-13.344 5.319-25.447 13.95-34.302l.34-.345.002.003C5.661 25.066.342 37.168.342 50.513c0 27.142 22.002 49.145 49.143 49.145 13.344 0 25.447-5.32 34.302-13.951l.002.002c-.114.114-.229.226-.344.339C74.59 94.681 62.488 100 49.143 100z" fill="#969A9D"/><path d="M49.487 99.658C22.346 99.658.344 77.655.344 50.513c0-13.345 5.319-25.447 13.95-34.302l.34-.345.002.003C6.005 24.724.686 36.827.686 50.17c0 27.142 22.002 49.146 49.144 49.146 13.344 0 25.446-5.32 34.3-13.953l.004.003-.345.34c-8.855 8.632-20.958 13.951-34.302 13.951z" fill="#96999C"/><path d="M49.831 99.317C22.69 99.317.687 77.313.687 50.17c0-13.345 5.32-25.447 13.951-34.303l.34-.344.002.003C6.349 24.382 1.03 36.485 1.03 49.829c0 27.141 22.002 49.145 49.143 49.145 13.344 0 25.446-5.319 34.302-13.952l.002.002c-.114.115-.229.227-.345.34-8.855 8.633-20.957 13.953-34.3 13.953z" fill="#96989A"/><path d="M50.171 98.974c-27.141 0-49.144-22.004-49.144-49.145 0-13.344 5.32-25.447 13.951-34.302l.34-.345.002.003C6.689 24.04 1.37 36.142 1.37 49.487c0 27.142 22.002 49.145 49.143 49.145 13.344 0 25.447-5.32 34.302-13.951l.002.002-.344.34c-8.856 8.632-20.958 13.95-34.302 13.95z" fill="#95979A"/><path d="M50.51 98.633c-27.14 0-49.143-22.004-49.143-49.146 0-13.344 5.32-25.447 13.95-34.302l.34-.344.003.002a49.458 49.458 0 00-5.597 6.883l-.005.008-.034.05-.01.014-.03.045-.012.018-.027.042-.015.022a.803.803 0 00-.044.065l-.02.03a1.44 1.44 0 01-.039.06l-.025.037-.013.02-.03.045-.009.014-.033.052-.004.006-.038.057-.001.002c-5.038 7.715-7.965 16.93-7.965 26.832 0 15.959 7.606 30.14 19.39 39.118A48.928 48.928 0 0050.853 98.29c5.406 0 10.61-.873 15.475-2.485l.001-.001.068-.023a2.04 2.04 0 01.065-.021l.013-.005a1.184 1.184 0 00.072-.024l.048-.016.026-.009a.72.72 0 01.04-.013c.01-.004.021-.007.031-.012a.65.65 0 00.035-.01l.039-.014.025-.009a.676.676 0 00.046-.016l.02-.006.054-.019.008-.003.063-.021a49.124 49.124 0 003.456-1.35l-.013.006a49.22 49.22 0 0014.73-9.9l.002.003-.345.339c-8.855 8.632-20.957 13.952-34.302 13.952z" fill="#939699"/><path d="M50.851 98.29zm15.623-2.536zm.071-.024l.048-.015-.048.015zm.146-.05l.034-.01a.219.219 0 01-.034.01zm.144-.048l.02-.007-.02.007zm.145-.05l.005-.001a.01.01 0 00-.005.001zM9.672 22.312l.001-.001-.001.001zm.077-.117l.009-.014a.2.2 0 01-.01.014zm.077-.117a.774.774 0 00.017-.026l-.017.026zm.04-.06l.019-.029a.952.952 0 01-.02.03zm.117-.176l.03-.044-.03.044zm.078-.117z" fill="#939599"/><mask id="mask0_801_4673" style="mask-type:luminance" maskUnits="userSpaceOnUse" x="1" y="0" width="99" height="99"><path d="M50.855 98.29A48.927 48.927 0 0121.1 88.263C9.317 79.285 1.711 65.104 1.711 49.146c0-9.902 2.927-19.117 7.965-26.833v-.001l.038-.058.005-.006.033-.052a1.333 1.333 0 01.039-.058l.013-.02.025-.038a.909.909 0 00.103-.154l.015-.023.027-.041.012-.019.03-.044.01-.015.034-.05.005-.008a49.363 49.363 0 0110.151-11.007 49.15 49.15 0 009.636-6.014 48.966 48.966 0 0119.54-4.04c27.141 0 49.143 22.004 49.143 49.147 0 19.61-11.484 36.536-28.095 44.421-1.128.491-2.28.941-3.451 1.348l-.005.002-.063.022a.013.013 0 00-.008.003c-.018.005-.035.012-.053.018l-.021.007a.66.66 0 01-.046.016l-.025.008-.04.014-.034.01-.03.012a.695.695 0 00-.041.014l-.026.009-.048.015a.096.096 0 01-.017.006c-.017.007-.037.013-.055.019l-.013.004a2.045 2.045 0 00-.065.022l-.068.022v.001a49.113 49.113 0 01-15.476 2.485zM99.203 58l.002-.006c0 .002 0 .004-.002.006zm.027-.146l.004-.02-.004.02zm.013-.07l.004-.021a.205.205 0 00-.004.021zm.026-.151l.005-.031a.433.433 0 01-.005.03zm.012-.067l.005-.033-.005.033zm.013-.076l.01-.055-.01.055zm.023-.14c.448-2.667.682-5.408.682-8.203 0-13.27-5.26-25.313-13.808-34.155C94.74 23.834 100 35.876 100 49.146c0 2.796-.233 5.536-.681 8.205zM29.855 4.703l.005-.003a48.82 48.82 0 01-.005.003zm9.221-3.28l.024-.006-.024.006z" fill="#fff"/></mask><g mask="url(#mask0_801_4673)"><path d="M50.855 98.29A48.927 48.927 0 0121.1 88.263C9.317 79.285 1.711 65.104 1.711 49.146c0-9.902 2.927-19.117 7.965-26.833v-.001l.038-.058.005-.006.033-.052a1.333 1.333 0 01.039-.058l.013-.02.025-.038.017-.027a1.41 1.41 0 00.042-.063.909.909 0 00.044-.064l.015-.023.027-.041.012-.019.03-.044.01-.015.034-.05.005-.008a49.363 49.363 0 0110.151-11.007 49.15 49.15 0 009.636-6.014 48.966 48.966 0 0119.54-4.04c27.141 0 49.143 22.004 49.143 49.147 0 19.61-11.484 36.536-28.095 44.421-1.128.491-2.28.941-3.451 1.348l-.005.002-.063.022a.013.013 0 00-.008.003c-.018.005-.035.012-.053.018l-.021.007a.66.66 0 01-.046.016l-.025.008-.04.014-.034.01-.03.012a.695.695 0 00-.041.014l-.026.009-.048.015a.096.096 0 01-.017.006c-.017.007-.037.013-.055.019l-.013.004a2.145 2.145 0 00-.065.022l-.068.022v.001a49.113 49.113 0 01-15.476 2.485zM99.203 58l.002-.006c0 .002 0 .004-.002.006zm.027-.146l.004-.02-.004.02zm.013-.07l.004-.021a.205.205 0 00-.004.021zm.026-.151l.005-.031a.433.433 0 01-.005.03zm.012-.067l.005-.033-.005.033zm.013-.076l.01-.055-.01.055zm.023-.14c.448-2.667.682-5.408.682-8.203 0-13.27-5.26-25.313-13.808-34.155C94.74 23.834 100 35.876 100 49.146c0 2.796-.233 5.536-.681 8.205zM29.855 4.703l.005-.003a48.821 48.821 0 01-.005.003zm9.221-3.28l.024-.006-.024.006z" fill="url(#paint0_linear_801_4673)"/></g><path d="M100.001 49.146c0 20.186-12.17 37.53-29.573 45.093 16.618-7.883 28.109-24.813 28.109-44.428C98.537 22.669 76.535.665 49.393.665a48.968 48.968 0 00-19.565 4.05A48.926 48.926 0 0150.857 0C77.997 0 100 22.004 100 49.146z" fill="#fff"/><path d="M79.298 56.032c-.74-.948-1.694-1.446-2.129-1.107-.436.339-.193 1.382.547 2.337.738.954 1.692 1.445 2.129 1.106.435-.339.193-1.382-.547-2.336zm-7.01-3.195c-1.7-2.902-4.507-6.601-6.546-7.61-.83-.408-2.261-.45-2.261-.45l.02 8.53s6.222-.034 8.504 0c.256.008.38-.304.284-.47zm-19.695-7.534h-3.567v-3.325h-4.645v3.325h-3.455v4.756h3.456v3.324h4.644V50.06h3.567v-4.756zM80.48 61.23c-.318.336.047 2.128-.926 2.122h-2.157c.062-.304.09-.616.09-.94v-.008c0-.863-.222-1.672-.608-2.377l-.063-.11-.11-.18a3.518 3.518 0 00-.172-.25 5.005 5.005 0 00-1.73-1.492 5.016 5.016 0 00-2.294-.567 4.983 4.983 0 00-4.977 4.976c0 .325.033.644.097.948H41.197a4.927 4.927 0 00-1.342-4.5A4.914 4.914 0 0036.37 57.4a4.943 4.943 0 00-4.935 4.936c0 .38.041.733.11 1.016H29.17a2.517 2.517 0 01-2.517-2.518V37.817a2.517 2.517 0 012.517-2.516h32.959a2.516 2.516 0 012.518 2.518c-.002 1.482 0 3.12.014 3.411.034.723.105 1.362.666 1.605 1.037.449 1.717.818 3.626 2.485 2.126 1.856 4.27 5.52 7.422 7.283 3.801 2.121 3.926 3.248 4.313 3.885.678 1.133 1.014 3.455-.207 4.742zm-44.092-2.516a3.735 3.735 0 00-.006 7.468 3.736 3.736 0 003.738-3.731 3.736 3.736 0 00-3.732-3.737zm39.842 3.698a3.735 3.735 0 01-3.734 3.731 3.734 3.734 0 113.734-3.731z" fill="#202020"/><defs><linearGradient id="paint0_linear_801_4673" x1="-6.002" y1="121.333" x2="85.606" y2="14.396" gradientUnits="userSpaceOnUse"><stop stop-color="#fff"/><stop offset="1" stop-color="#EFEFEF"/></linearGradient></defs></svg>
